X:1
T:A Scarce o' Tatties
M:C
L:1/8
Q:80
C:Norman McLean of Oban
S:Jig
K:HP
M:6/8 e | \
{g}Ae{A}e{g}efg | \
{gef}e2B{g}dBA |
{g}Ae{A}e{g}efg | \
{g}edB{G}A3 | \
a{g}a{g}agaf |
{g}eaf{g}e2{AGAG}A | \
{g}Ae{A}e{g}efg | \
{g}edB{G}A3 ::
| ae{a}g{ag}a2e | \
{gf}g2f{g}e2{AGAG}A | \
ae{a}g{ag}a2e |
{g}gaf{gef}e3 | \
{gef}e2{A}e{g}A2G | \
{Gdc}d2f{g}fe{A}e |
{g}A{d}A{e}A{g}efg | \
{g}edB{G}A2 :|
